X: 339
T: The belles of Liscarroll
C: anon.
O: Ireland
B: Francis O'Neill: "The Dance Music of Ireland" (1907) no. 339
R: Double jig
Z: Transcribed by Frank Nordberg - http://www.musicaviva.com
F: http://www.musicaviva.com/abc/tunes/ireland/oneill-1001/oneill-1001-033
9.abc
M: 6/8
L: 1/8
K: C
c2c (d/e/f)d|ecA GED|c2c (d/c/A)F|GEE GAB|c2c (d/e/f)(d|e)cA (AB)c|d^cA G
EA|[1DED D^FA:|[2DED (d/c/AG)||
K: D
||F2F DGG|DFA (GF)E|DFF DF(A|B)GE E(AG)|F2F G2(G|A)GA (f/e/d)f|ecA GEA|[1
DFA (d/c/AG):|[2DED Dcd||
||d2d (DF)A|G2G (EF)A|Bcd DFA|BGE EFA|dfd cec|(B/c/d)(B A)FD|DFA DdB|ABG
FED:|
W:
W:
W: From Musica Viva - http://www.musicaviva.com
W: the Internet center for free sheet music downloads.


